X:59
T:Morning Star
M:4/4
L:1/8
R:reel
K:Em
|: B2BA BGEF | GABd efgd | B2BA BGEF | GBAF G2GA :|
Bdef g2eg | fedf edBA | Bdef g2eg | fedf e2ed |
Bdef g2eg | fedf edBA | Bdd^c defg | a2af gfed||
